;FLAVOR:Marlin
;TIME:2087
;Filament used: 2.18246m
;Layer height: 0.16
;MINX:0
;MINY:0
;MINZ:0.2
;MAXX:147.75
;MAXY:137.45
;MAXZ:10.2
;TARGET_MACHINE.NAME:Creality Ender-3 V3 SE
;Generated with Cura_SteamEngine 5.12.0
M220 S100 ;Reset Feedrate
M221 S100 ;Reset Flowrate

G28 ;Home

M420 S1; Use saved mesh leveling data

G92 E0 ;Reset Extruder
G1 Z2.0 F3000 ;Move Z Axis up
G1 X-3 Y20 Z0.28 F5000.0 ;Move to start position
M190 S60 ; Set bed temperature and wait
M109 S200 ; Set hotend temperature and wait
G1 X-3 Y100.0 Z0.28 F1500.0 E15 ;Draw the first line
G1 X-2 Y100.0 Z0.28 F5000.0 ;Move to side a little
G1 X-2 Y20 Z0.28 F1500.0 E30 ;Draw the second line
G92 E0 ;Reset Extruder
G1 E-1.0000 F1800 ;Retract a bit
G1 Z2.0 F3000 ;Move Z Axis up
G1 E0.0000 F1800 

M82 ;absolute extrusion mode
G92 E0
G92 E0
G1 F2400 E-0.8
;LAYER_COUNT:50
;LAYER:0
M107
G1 F300 Z0.4
G0 F6000 X75.719 Y85.551
;TYPE:SKIRT
G1 F300 Z0.2
G1 F2400 E0
G1 F900 X76.429 Y84.937 E0.03278
G1 X77.248 Y84.347 E0.06803
G1 X78.087 Y83.851 E0.10207
G1 X78.901 Y83.46 E0.13361
G1 X79.878 Y83.092 E0.17007
G1 X80.782 Y82.842 E0.20282
G1 X81.784 Y82.659 E0.23839
G1 X82.955 Y82.563 E0.27943
G1 X83.562 Y82.55 E0.30063
G1 X136.054 Y82.55 E2.13382
G1 X136.934 Y82.563 E2.16455
G1 X137.906 Y82.622 E2.19856
G1 X138.869 Y82.768 E2.23257
G1 X139.816 Y82.999 E2.26662
G1 X140.704 Y83.299 E2.29935
G1 X141.596 Y83.689 E2.33335
G1 X142.479 Y84.176 E2.36856
G1 X143.23 Y84.678 E2.40011
G1 X144.045 Y85.336 E2.43669
G1 X144.743 Y86.014 E2.47068
G1 X145.379 Y86.751 E2.50467
G1 X145.949 Y87.541 E2.53869
G1 X146.411 Y88.317 E2.57023
G1 X146.865 Y89.259 E2.60675
G1 X147.194 Y90.137 E2.6395
G1 X147.463 Y91.109 E2.67472
G1 X147.64 Y92.075 E2.70902
G1 X147.735 Y93.205 E2.74862
G1 X147.75 Y93.88 E2.7722
G1 X147.749 Y125.866 E3.88925
G1 X147.737 Y126.627 E3.91583
G1 X147.679 Y127.6 E3.94987
G1 X147.533 Y128.563 E3.98388
G1 X147.302 Y129.51 E4.01793
G1 X146.989 Y130.432 E4.05193
G1 X146.597 Y131.323 E4.08592
G1 X146.145 Y132.145 E4.11869
G1 X145.583 Y132.983 E4.15392
G1 X144.993 Y133.713 E4.1867
G1 X144.29 Y134.439 E4.222
G1 X143.554 Y135.075 E4.25597
G1 X142.764 Y135.645 E4.28999
G1 X141.988 Y136.108 E4.32154
G1 X141.048 Y136.561 E4.35799
G1 X140.135 Y136.903 E4.39203
G1 X139.197 Y137.162 E4.42602
G1 X138.231 Y137.339 E4.46031
G1 X137.095 Y137.435 E4.50013
G1 X136.42 Y137.45 E4.52371
G1 X83.799 Y137.449 E6.3614
G1 X83.066 Y137.437 E6.387
G1 X82.094 Y137.378 E6.42101
G1 X81.131 Y137.232 E6.45502
G1 X80.184 Y137.001 E6.48907
G1 X79.296 Y136.701 E6.5218
G1 X78.404 Y136.311 E6.5558
G1 X77.521 Y135.824 E6.59101
G1 X76.77 Y135.322 E6.62256
G1 X75.955 Y134.664 E6.65914
G1 X75.257 Y133.986 E6.69313
G1 X74.621 Y133.249 E6.72712
G1 X74.051 Y132.459 E6.76114
G1 X73.589 Y131.683 E6.79268
G1 X73.135 Y130.741 E6.8292
G1 X72.806 Y129.863 E6.86195
G1 X72.537 Y128.89 E6.8972
G1 X72.36 Y127.923 E6.93153
G1 X72.264 Y126.758 E6.97236
G1 X72.25 Y126.108 E6.99506
G1 X72.251 Y94.059 E8.11431
G1 X72.263 Y93.358 E8.1388
G1 X72.323 Y92.385 E8.17284
G1 X72.47 Y91.424 E8.20679
G1 X72.701 Y90.476 E8.24087
G1 X73.003 Y89.587 E8.27366
G1 X73.41 Y88.665 E8.30886
G1 X73.881 Y87.813 E8.34285
G1 X74.426 Y87.004 E8.37692
G1 X75.017 Y86.276 E8.40967
G1 X75.719 Y85.551 E8.44491
G0 F6000 X75.981 Y85.854
G1 F900 X76.691 Y85.24 E8.47769
G1 X77.452 Y84.691 E8.51046
G1 X78.26 Y84.212 E8.54327
G1 X79.074 Y83.821 E8.5748
G1 X79.985 Y83.478 E8.6088
G1 X80.889 Y83.228 E8.64155
G1 X81.817 Y83.058 E8.6745
G1 X82.964 Y82.963 E8.7147
G1 X83.571 Y82.95 E8.7359
G1 X136.048 Y82.95 E10.56856
G1 X136.91 Y82.962 E10.59867
G1 X137.847 Y83.018 E10.63145
G1 X138.775 Y83.157 E10.66422
G1 X139.688 Y83.378 E10.69703
G1 X140.544 Y83.666 E10.72857
G1 X141.436 Y84.056 E10.76256
G1 X142.257 Y84.509 E10.79531
G1 X143.008 Y85.011 E10.82686
G1 X143.767 Y85.623 E10.86091
G1 X144.441 Y86.276 E10.89368
G1 X145.055 Y86.985 E10.92644
G1 X145.605 Y87.746 E10.95923
G1 X146.067 Y88.522 E10.99077
G1 X146.49 Y89.399 E11.02477
G1 X146.819 Y90.277 E11.05752
G1 X147.07 Y91.182 E11.09031
G1 X147.241 Y92.109 E11.12323
G1 X147.336 Y93.239 E11.16284
G1 X147.35 Y93.88 E11.18523
G1 X147.349 Y125.86 E12.30207
G1 X147.338 Y126.604 E12.32806
G1 X147.283 Y127.541 E12.36084
G1 X147.144 Y128.469 E12.39361
G1 X146.923 Y129.382 E12.42641
G1 X146.623 Y130.271 E12.45918
G1 X146.246 Y131.13 E12.49194
G1 X145.794 Y131.952 E12.5247
G1 X145.271 Y132.732 E12.5575
G1 X144.705 Y133.435 E12.58902
G1 X144.028 Y134.137 E12.62307
G1 X143.32 Y134.751 E12.6558
G1 X142.559 Y135.301 E12.68859
G1 X141.783 Y135.764 E12.72015
G1 X140.907 Y136.187 E12.75412
G1 X140.028 Y136.518 E12.78693
G1 X139.124 Y136.769 E12.81969
G1 X138.197 Y136.94 E12.85261
G1 X137.061 Y137.036 E12.89242
G1 X136.42 Y137.05 E12.91482
G1 X83.805 Y137.049 E14.7523
G1 X83.09 Y137.038 E14.77727
G1 X82.153 Y136.982 E14.81005
G1 X81.225 Y136.843 E14.84282
G1 X80.312 Y136.622 E14.87563
G1 X79.456 Y136.334 E14.90717
G1 X78.564 Y135.944 E14.94117
G1 X77.743 Y135.491 E14.97391
G1 X76.992 Y134.989 E15.00546
G1 X76.233 Y134.377 E15.03951
G1 X75.559 Y133.724 E15.07228
G1 X74.945 Y133.015 E15.10504
G1 X74.395 Y132.254 E15.13783
G1 X73.933 Y131.478 E15.16937
G1 X73.51 Y130.601 E15.20337
G1 X73.181 Y129.723 E15.23612
G1 X72.93 Y128.818 E15.26892
G1 X72.759 Y127.89 E15.30187
G1 X72.663 Y126.725 E15.34269
G1 X72.65 Y126.108 E15.36425
G1 X72.651 Y94.065 E16.48329
G1 X72.662 Y93.382 E16.50714
G1 X72.719 Y92.445 E16.53993
G1 X72.859 Y91.518 E16.57267
G1 X73.08 Y90.605 E16.60547
G1 X73.382 Y89.716 E16.63826
G1 X73.76 Y88.858 E16.67101
G1 X74.213 Y88.036 E16.70378
G1 X74.737 Y87.256 E16.7366
G1 X75.328 Y86.528 E16.76935
G1 X75.981 Y85.854 E16.80212
G0 F6000 X76.243 Y86.156
G1 F900 X76.925 Y85.564 E16.83366
G1 X77.657 Y85.035 E16.8652
G1 X78.433 Y84.573 E16.89674
G1 X79.247 Y84.182 E16.92828
G1 X80.092 Y83.863 E16.95982
G1 X80.962 Y83.621 E16.99136
G1 X81.85 Y83.457 E17.02289
G1 X82.973 Y83.363 E17.06225
G1 X83.58 Y83.35 E17.08345
G1 X136.043 Y83.35 E18.91563
G1 X136.887 Y83.361 E18.9451
G1 X137.789 Y83.414 E18.97666
G1 X138.682 Y83.546 E19.00818
G1 X139.56 Y83.757 E19.03972
G1 X140.416 Y84.045 E19.07126
G1 X141.243 Y84.407 E19.10279
G1 X142.035 Y84.842 E19.13434
G1 X142.786 Y85.344 E19.16589
G1 X143.489 Y85.911 E19.19743
G1 X144.139 Y86.538 E19.22897
G1 X144.731 Y87.22 E19.26051
G1 X145.261 Y87.951 E19.29204
G1 X145.723 Y88.727 E19.32358
G1 X146.116 Y89.54 E19.35512
G1 X146.434 Y90.385 E19.38665
G1 X146.677 Y91.255 E19.4182
G1 X146.842 Y92.143 E19.44974
G1 X146.937 Y93.273 E19.48934
G1 X146.95 Y93.88 E19.51054
G1 X146.949 Y125.854 E20.62718
G1 X146.939 Y126.581 E20.65257
G1 X146.887 Y127.483 E20.68412
G1 X146.755 Y128.376 E20.71565
G1 X146.544 Y129.255 E20.74721
G1 X146.257 Y130.111 E20.77874
G1 X145.895 Y130.938 E20.81027
G1 X145.461 Y131.73 E20.84181
G1 X144.959 Y132.481 E20.87336
G1 X144.393 Y133.184 E20.90488
G1 X143.766 Y133.835 E20.93644
G1 X143.085 Y134.427 E20.96796
G1 X142.354 Y134.957 E20.99949
G1 X141.578 Y135.42 E21.03105
G1 X140.765 Y135.813 E21.06258
G1 X139.92 Y136.133 E21.09414
G1 X139.051 Y136.376 E21.12565
G1 X138.163 Y136.541 E21.15719
G1 X137.027 Y136.637 E21.19701
G1 X136.42 Y136.65 E21.21821
G1 X83.811 Y136.649 E23.05548
G1 X83.113 Y136.639 E23.07986
G1 X82.211 Y136.586 E23.11141
G1 X81.318 Y136.454 E23.14294
G1 X80.44 Y136.243 E23.17448
G1 X79.584 Y135.955 E23.20602
G1 X78.757 Y135.593 E23.23754
G1 X77.965 Y135.158 E23.2691
G1 X77.214 Y134.656 E23.30065
G1 X76.511 Y134.089 E23.33219
G1 X75.861 Y133.462 E23.36373
G1 X75.269 Y132.78 E23.39527
G1 X74.739 Y132.049 E23.4268
G1 X74.277 Y131.273 E23.45834
G1 X73.884 Y130.46 E23.48988
G1 X73.566 Y129.615 E23.52141
G1 X73.323 Y128.745 E23.55295
G1 X73.158 Y127.857 E23.58449
G1 X73.063 Y126.716 E23.62448
G1 X73.05 Y126.108 E23.64572
G1 X73.051 Y94.071 E24.76455
G1 X73.061 Y93.406 E24.78778
G1 X73.115 Y92.504 E24.81933
G1 X73.248 Y91.611 E24.85086
G1 X73.459 Y90.733 E24.8824
G1 X73.748 Y89.877 E24.91395
G1 X74.111 Y89.05 E24.94549
G1 X74.545 Y88.259 E24.977
G1 X75.048 Y87.508 E25.00857
G1 X75.616 Y86.806 E25.0401
G1 X76.243 Y86.156 E25.07164
G1 F2400 E24.27164
G1 F300 Z0.4
;MESH:CaseEsp32.stl
G0 F6000 X85.074 Y94.555
;TYPE:WALL-INNER
G1 F300 Z0.2
G1 F2400 E25.07164
G1 F882.4 X85.248 Y94.548 E25.07785
G1 F900 X134.348 Y94.548 E26.79257
G1 F2400 E25.99257
G1 F300 Z0.4
G0 F6000 X110 Y99.148
G1 F300 Z0.2
G1 F2400 E26.79257
G1 F900 X85.248 Y99.148 E27.65699
G1 X85.016 Y99.102 E27.66525
G1 X84.767 Y98.908 E27.67627
G1 X84.648 Y98.634 E27.68671
G1 X84.648 Y95.548 E27.79448
G1 X84.823 Y95.123 E27.81053
G1 X85.159 Y94.948 E27.82376
G1 X134.348 Y94.948 E29.5416
G1 X134.854 Y95.226 E29.56176
G1 X134.948 Y95.548 E29.57347
G1 X134.948 Y98.633 E29.68121
G1 X134.829 Y98.909 E29.69171
G1 X134.579 Y99.102 E29.70274
G1 X134.348 Y99.148 E29.71096
G1 X110 Y99.148 E30.56127
G1 F2400 E29.76127
G1 F300 Z0.4
G0 F6000 X110 Y120.448
G1 F300 Z0.2
G1 F2400 E30.56127
G1 F900 X134.348 Y120.448 E31.41158
G1 X134.733 Y120.524 E31.42529
G1 X135.149 Y120.847 E31.44368
G1 X135.348 Y121.448 E31.46579
G1 F895.5 X135.348 Y124.583 E31.57582
G1 F794.7 X135.235 Y125.012 E31.59337
G1 F784.3 X134.522 Y125.441 E31.62671
G1 X135.446 Y125.397 E31.66378
G1 F717.1 X135.697 Y125.397 E31.67478
G1 X135.697 Y125.146 E31.68578
G1 F789.5 X135.744 Y124.656 E31.70538
G1 F884.5 X135.746 Y110.102 E32.22255
G1 F895.5 X135.748 Y95.548 E32.73336
G1 F798.2 X135.697 Y94.85 E32.76092
G1 F717.1 X135.697 Y94.599 E32.77192
G1 X135.446 Y94.599 E32.78292
G1 F798.2 X134.348 Y94.548 E32.8262
G1 X135.235 Y94.984 E32.86512
G1 X135.348 Y95.548 E32.88777
G1 F895.5 X135.348 Y98.698 E32.99833
G1 X135.149 Y99.149 E33.01563
G1 F900 X134.733 Y99.472 E33.03402
G1 X134.348 Y99.548 E33.04773
G1 X85.248 Y99.548 E34.76245
G1 X84.862 Y99.472 E34.77619
G1 X84.447 Y99.147 E34.7946
G1 F882.4 X84.255 Y98.722 E34.81121
G1 X84.247 Y99.214 E34.82874
G1 F900 X84.248 Y121.448 E35.60522
G1 X84.447 Y120.847 E35.62733
G1 X84.863 Y120.524 E35.64572
G1 X85.248 Y120.448 E35.65943
G1 X110 Y120.448 E36.52385
G1 F2400 E35.72385
G1 F300 Z0.4
G0 F6000 X110 Y125.048
G1 F300 Z0.2
G1 F2400 E36.52385
G1 F900 X85.248 Y125.048 E37.38826
G1 X84.823 Y124.873 E37.40432
G1 X84.648 Y124.537 E37.41755
G1 X84.648 Y121.448 E37.52542
G1 X84.767 Y121.087 E37.5387
G1 X85.017 Y120.894 E37.54973
G1 X85.248 Y120.848 E37.55795
G1 X134.348 Y120.848 E39.27268
G1 X134.579 Y120.894 E39.28091
G1 X134.829 Y121.087 E39.29194
G1 X134.948 Y121.448 E39.30521
G1 X134.948 Y124.532 E39.41291
G1 X134.854 Y124.77 E39.42185
G1 X134.44 Y125.048 E39.43926
G1 X110 Y125.048 E40.29279
G1 F2400 E39.49279
G1 F300 Z0.4
G0 F6000 X134.522 Y125.441
G1 F300 Z0.2
G1 F2400 E40.29279
G1 F882.4 X134.348 Y125.448 E40.29899
G1 F900 X85.248 Y125.448 E42.01372
G1 F932.6 X84.551 Y125.145 E42.03933
G1 F913.7 X84.255 Y124.622 E42.06
G1 X84.234 Y125.462 E42.08891
G1 F932.6 X85.248 Y125.448 E42.12308
G0 F6000 X84.255 Y124.622
G1 F882.4 X84.248 Y124.448 E42.12928
G1 F900 X84.248 Y121.448 E42.23405
G1 F2400 E41.43405
G1 F300 Z0.4
G0 F6000 X84.255 Y98.722
G1 F300 Z0.2
G1 F2400 E42.23405
G1 F882.4 X84.248 Y98.548 E42.24026
G1 F900 X84.248 Y95.548 E42.34503
G1 F932.6 X84.551 Y94.851 E42.37064
G1 F913.7 X85.074 Y94.555 E42.39131
G1 X84.234 Y94.534 E42.42022
G1 F932.6 X84.248 Y95.548 E42.45439
G1 F2400 E41.65439
G1 F300 Z0.4
G0 F6000 X110 Y125.848
G1 F300 Z0.2
G1 F2400 E42.45439
G1 F900 X136.148 Y125.848 E43.36756
G1 X136.148 Y94.148 E44.47463
G1 X83.849 Y94.149 E46.30107
G1 X83.849 Y125.847 E47.40807
G1 X110 Y125.848 E48.32134
G0 F6000 X110 Y126.248
;TYPE:WALL-OUTER
G1 F900 X136.548 Y126.248 E49.24848
G1 X136.548 Y93.748 E50.38348
G1 X83.449 Y93.749 E52.23787
G1 X83.449 Y126.247 E53.3728
G1 X110 Y126.248 E54.30004
G1 F2400 E53.50004
G1 F300 Z0.4
G0 F6000 X110 Y124.647
G1 F300 Z0.2
G1 F2400 E54.30004
G1 F900 X85.248 Y124.648 E55.16446
G1 X85.106 Y124.59 E55.16982
G1 X85.05 Y124.483 E55.17403
G1 X85.048 Y121.448 E55.28003
G1 X85.087 Y121.327 E55.28447
G1 X85.191 Y121.248 E55.28903
G1 X134.405 Y121.248 E57.00773
G1 X134.509 Y121.327 E57.0123
G1 X134.548 Y121.448 E57.01674
G1 X134.546 Y124.483 E57.12273
G1 X134.517 Y124.556 E57.12547
G1 X134.383 Y124.646 E57.13111
G1 X110 Y124.647 E57.98264
G1 F2400 E57.18264
G1 F300 Z0.4
G0 F6000 X110 Y98.748
G1 F300 Z0.2
G1 F2400 E57.98264
G1 F900 X85.189 Y98.748 E58.84912
G1 X85.087 Y98.668 E58.85364
G1 X85.05 Y98.583 E58.85688
G1 X85.048 Y95.548 E58.96287
G1 X85.106 Y95.406 E58.96823
G1 X85.213 Y95.35 E58.97245
G1 X134.348 Y95.348 E60.6884
G1 X134.517 Y95.44 E60.69512
G1 X134.548 Y95.548 E60.69904
G1 X134.546 Y98.583 E60.80503
G1 X134.509 Y98.669 E60.8083
G1 X134.405 Y98.748 E60.81286
G1 X110 Y98.748 E61.66516
G1 F2400 E60.86516
G1 F300 Z0.4
G0 F6000 X110 Y120.091
;TYPE:SKIN
G1 F300 Z0.2
G1 F2400 E61.66516
G1 F900 X85.213 Y120.091 E62.5308
G1 X84.765 Y120.179 E62.54675
G1 X84.609 Y120.273 E62.55311
G1 X84.605 Y99.717 E63.27099
G1 X84.76 Y99.812 E63.27734
G1 X85.212 Y99.905 E63.29345
G1 X134.34 Y99.908 E65.00916
G1 X134.873 Y99.803 E65.02813
G1 X135.388 Y99.406 E65.05084
G1 X135.388 Y120.586 E65.79051
G1 X134.872 Y120.188 E65.81327
G1 X134.379 Y120.091 E65.83081
G1 X110 Y120.091 E66.68221
G1 F2400 E65.88221
G1 F300 Z0.4
G0 F6000 X84.88 Y119.952
G1 F300 Z0.2
G1 F2400 E66.68221
G1 F900 X84.808 Y119.881 E66.68574
G0 F6000 X84.808 Y119.315
G1 F900 X85.381 Y119.888 E66.71404
G0 F6000 X85.947 Y119.888
G1 F900 X84.808 Y118.749 E66.77029
G0 F6000 X84.808 Y118.184
G1 F900 X86.512 Y119.888 E66.85445
G0 F6000 X87.078 Y119.888
G1 F900 X84.808 Y117.618 E66.96656
G0 F6000 X84.808 Y117.052
G1 F900 X87.644 Y119.888 E67.10663
G0 F6000 X88.209 Y119.888
G1 F900 X84.808 Y116.486 E67.27462
G0 F6000 X84.808 Y115.92
G1 F900 X88.775 Y119.888 E67.47057
G0 F6000 X89.341 Y119.888
G1 F900 X84.808 Y115.355 E67.69445
G0 F6000 X84.808 Y114.789
G1 F900 X89.907 Y119.888 E67.94629
G0 F6000 X90.472 Y119.888
G1 F900 X84.807 Y114.222 E68.2261
G0 F6000 X84.807 Y113.657
G1 F900 X91.038 Y119.888 E68.53384
G0 F6000 X91.604 Y119.888
G1 F900 X84.807 Y113.091 E68.86954
G0 F6000 X84.807 Y112.525
G1 F900 X92.169 Y119.888 E69.23316
G0 F6000 X92.735 Y119.888
G1 F900 X84.807 Y111.96 E69.62471
G0 F6000 X84.806 Y111.393
G1 F900 X93.301 Y119.888 E70.04427
G0 F6000 X93.866 Y119.888
G1 F900 X84.806 Y110.828 E70.49173
G0 F6000 X84.806 Y110.262
G1 F900 X94.432 Y119.888 E70.96715
G0 F6000 X94.998 Y119.888
G1 F900 X84.806 Y109.696 E71.47052
G0 F6000 X84.806 Y109.131
G1 F900 X95.563 Y119.888 E72.0018
G0 F6000 X96.129 Y119.888
G1 F900 X84.805 Y108.564 E72.56108
G0 F6000 X84.805 Y107.999
G1 F900 X96.695 Y119.888 E73.14828
G0 F6000 X97.26 Y119.888
G1 F900 X84.805 Y107.433 E73.76342
G0 F6000 X84.805 Y106.867
G1 F900 X97.826 Y119.888 E74.40651
G0 F6000 X98.392 Y119.888
G1 F900 X84.805 Y106.301 E75.07756
G0 F6000 X84.805 Y105.736
G1 F900 X98.957 Y119.888 E75.77651
G0 F6000 X99.523 Y119.888
G1 F900 X84.805 Y105.169 E76.50344
G0 F6000 X84.805 Y104.604
G1 F900 X100.089 Y119.888 E77.25829
G0 F6000 X100.655 Y119.888
G1 F900 X84.805 Y104.038 E78.04111
G0 F6000 X84.805 Y103.472
G1 F900 X101.22 Y119.888 E78.85185
G0 F6000 X101.786 Y119.888
G1 F900 X84.805 Y102.907 E79.69052
G0 F6000 X84.804 Y102.34
G1 F900 X102.352 Y119.888 E80.55719
G0 F6000 X102.917 Y119.888
G1 F900 X84.804 Y101.775 E81.45177
G0 F6000 X84.804 Y101.209
G1 F900 X103.483 Y119.888 E82.37431
G0 F6000 X104.049 Y119.888
G1 F900 X84.804 Y100.643 E83.32479
G0 F6000 X84.804 Y100.078
G1 F900 X104.614 Y119.888 E84.30318
G0 F6000 X105.18 Y119.888
G1 F900 X85.4 Y100.108 E85.28009
G0 F6000 X85.966 Y100.108
G1 F900 X105.746 Y119.888 E86.257
G0 F6000 X106.311 Y119.888
G1 F900 X86.531 Y100.108 E87.23391
G0 F6000 X87.097 Y100.108
G1 F900 X106.877 Y119.888 E88.21082
G0 F6000 X107.443 Y119.888
G1 F900 X87.663 Y100.108 E89.18773
G0 F6000 X88.229 Y100.108
G1 F900 X108.008 Y119.888 E90.16462
G0 F6000 X108.574 Y119.888
G1 F900 X88.794 Y100.108 E91.14153
G0 F6000 X89.36 Y100.108
G1 F900 X109.14 Y119.888 E92.11844
G0 F6000 X109.705 Y119.888
G1 F900 X89.926 Y100.108 E93.09533
G0 F6000 X90.491 Y100.108
G1 F900 X110.271 Y119.888 E94.07224
G0 F6000 X110.837 Y119.888
G1 F900 X91.057 Y100.108 E95.04915
G0 F6000 X91.623 Y100.108
