;FLAVOR:Marlin
;TIME:691
;Filament used: 0.570966m
;Layer height: 0.16
;MINX:0
;MINY:0
;MINZ:0.2
;MAXX:146.45
;MAXY:136.45
;MAXZ:1
;TARGET_MACHINE.NAME:Creality Ender-3 V3 SE
;Generated with Cura_SteamEngine 5.12.0
M220 S100 ;Reset Feedrate
M221 S100 ;Reset Flowrate

G28 ;Home

M420 S1; Use saved mesh leveling data

G92 E0 ;Reset Extruder
G1 Z2.0 F3000 ;Move Z Axis up
G1 X-3 Y20 Z0.28 F5000.0 ;Move to start position
M190 S60 ; Set bed temperature and wait
M109 S200 ; Set hotend temperature and wait
G1 X-3 Y100.0 Z0.28 F1500.0 E15 ;Draw the first line
G1 X-2 Y100.0 Z0.28 F5000.0 ;Move to side a little
G1 X-2 Y20 Z0.28 F1500.0 E30 ;Draw the second line
G92 E0 ;Reset Extruder
G1 E-1.0000 F1800 ;Retract a bit
G1 Z2.0 F3000 ;Move Z Axis up
G1 E0.0000 F1800 

M82 ;absolute extrusion mode
G92 E0
G92 E0
G1 F2400 E-0.8
;LAYER_COUNT:4
;LAYER:0
M107
G1 F300 Z0.4
G0 F6000 X77.019 Y86.551
;TYPE:SKIRT
G1 F300 Z0.2
G1 F2400 E0
G1 F900 X77.729 Y85.937 E0.03278
G1 X78.548 Y85.347 E0.06803
G1 X79.387 Y84.851 E0.10207
G1 X80.201 Y84.46 E0.13361
G1 X81.178 Y84.092 E0.17007
G1 X82.082 Y83.842 E0.20282
G1 X83.084 Y83.659 E0.23839
G1 X84.255 Y83.563 E0.27943
G1 X84.862 Y83.55 E0.30063
G1 X134.754 Y83.55 E2.04301
G1 X135.634 Y83.563 E2.07375
G1 X136.606 Y83.622 E2.10776
G1 X137.569 Y83.768 E2.14177
G1 X138.516 Y83.999 E2.17582
G1 X139.404 Y84.299 E2.20855
G1 X140.296 Y84.689 E2.24255
G1 X141.179 Y85.176 E2.27776
G1 X141.93 Y85.678 E2.30931
G1 X142.745 Y86.336 E2.34589
G1 X143.443 Y87.014 E2.37988
G1 X144.079 Y87.751 E2.41387
G1 X144.649 Y88.541 E2.44789
G1 X145.111 Y89.317 E2.47943
G1 X145.565 Y90.259 E2.51595
G1 X145.894 Y91.137 E2.5487
G1 X146.163 Y92.109 E2.58392
G1 X146.34 Y93.075 E2.61822
G1 X146.435 Y94.205 E2.65782
G1 X146.45 Y94.88 E2.6814
G1 X146.449 Y124.866 E3.7286
G1 X146.437 Y125.627 E3.75518
G1 X146.379 Y126.6 E3.78922
G1 X146.233 Y127.563 E3.82324
G1 X146.002 Y128.51 E3.85728
G1 X145.689 Y129.432 E3.89128
G1 X145.297 Y130.323 E3.92528
G1 X144.845 Y131.145 E3.95804
G1 X144.283 Y131.983 E3.99328
G1 X143.693 Y132.713 E4.02606
G1 X142.99 Y133.439 E4.06135
G1 X142.254 Y134.075 E4.09532
G1 X141.464 Y134.645 E4.12934
G1 X140.688 Y135.108 E4.1609
G1 X139.748 Y135.561 E4.19734
G1 X138.835 Y135.903 E4.23139
G1 X137.897 Y136.162 E4.26537
G1 X136.931 Y136.339 E4.29967
G1 X135.795 Y136.435 E4.33948
G1 X135.12 Y136.45 E4.36306
G1 X85.099 Y136.449 E6.10995
G1 X84.366 Y136.437 E6.13555
G1 X83.394 Y136.378 E6.16956
G1 X82.431 Y136.232 E6.20358
G1 X81.484 Y136.001 E6.23762
G1 X80.596 Y135.701 E6.27035
G1 X79.704 Y135.311 E6.30435
G1 X78.821 Y134.824 E6.33957
G1 X78.07 Y134.322 E6.37111
G1 X77.255 Y133.664 E6.4077
G1 X76.557 Y132.986 E6.44168
G1 X75.921 Y132.249 E6.47568
G1 X75.351 Y131.459 E6.5097
G1 X74.889 Y130.683 E6.54124
G1 X74.435 Y129.741 E6.57776
G1 X74.106 Y128.863 E6.6105
G1 X73.837 Y127.89 E6.64575
G1 X73.66 Y126.923 E6.68009
G1 X73.564 Y125.758 E6.72091
G1 X73.55 Y125.108 E6.74362
G1 X73.551 Y95.059 E7.79302
G1 X73.563 Y94.358 E7.81751
G1 X73.623 Y93.385 E7.85155
G1 X73.77 Y92.424 E7.8855
G1 X74.001 Y91.476 E7.91958
G1 X74.303 Y90.587 E7.95237
G1 X74.71 Y89.665 E7.98756
G1 X75.181 Y88.813 E8.02156
G1 X75.726 Y88.004 E8.05563
G1 X76.317 Y87.276 E8.08837
G1 X77.019 Y86.551 E8.12362
G0 F6000 X77.281 Y86.854
G1 F900 X77.991 Y86.24 E8.1564
G1 X78.752 Y85.691 E8.18917
G1 X79.56 Y85.212 E8.22197
G1 X80.374 Y84.821 E8.25351
G1 X81.285 Y84.478 E8.28751
G1 X82.189 Y84.228 E8.32026
G1 X83.117 Y84.058 E8.35321
G1 X84.264 Y83.963 E8.3934
G1 X84.871 Y83.95 E8.41461
G1 X134.748 Y83.95 E10.15647
G1 X135.61 Y83.962 E10.18657
G1 X136.547 Y84.018 E10.21936
G1 X137.475 Y84.157 E10.25213
G1 X138.388 Y84.378 E10.28493
G1 X139.244 Y84.666 E10.31647
G1 X140.136 Y85.056 E10.35047
G1 X140.957 Y85.509 E10.38322
G1 X141.708 Y86.011 E10.41477
G1 X142.467 Y86.623 E10.44882
G1 X143.141 Y87.276 E10.48159
G1 X143.755 Y87.985 E10.51434
G1 X144.305 Y88.746 E10.54714
G1 X144.767 Y89.522 E10.57867
G1 X145.19 Y90.399 E10.61268
G1 X145.519 Y91.277 E10.64542
G1 X145.77 Y92.182 E10.67822
G1 X145.941 Y93.109 E10.71114
G1 X146.036 Y94.239 E10.75074
G1 X146.05 Y94.88 E10.77314
G1 X146.049 Y124.86 E11.82013
G1 X146.038 Y125.604 E11.84612
G1 X145.983 Y126.541 E11.8789
G1 X145.844 Y127.469 E11.91167
G1 X145.623 Y128.382 E11.94447
G1 X145.323 Y129.271 E11.97724
G1 X144.946 Y130.13 E12.01
G1 X144.494 Y130.952 E12.04276
G1 X143.971 Y131.732 E12.07556
G1 X143.405 Y132.435 E12.10708
G1 X142.728 Y133.137 E12.14114
G1 X142.02 Y133.751 E12.17386
G1 X141.259 Y134.301 E12.20665
G1 X140.483 Y134.764 E12.23821
G1 X139.607 Y135.187 E12.27218
G1 X138.728 Y135.518 E12.30499
G1 X137.824 Y135.769 E12.33775
G1 X136.897 Y135.94 E12.37067
G1 X135.761 Y136.036 E12.41049
G1 X135.12 Y136.05 E12.43288
G1 X85.105 Y136.049 E14.17956
G1 X84.39 Y136.038 E14.20453
G1 X83.453 Y135.982 E14.23731
G1 X82.525 Y135.843 E14.27008
G1 X81.612 Y135.622 E14.30289
G1 X80.756 Y135.334 E14.33443
G1 X79.864 Y134.944 E14.36843
G1 X79.043 Y134.491 E14.40117
G1 X78.292 Y133.989 E14.43272
G1 X77.533 Y133.377 E14.46677
G1 X76.859 Y132.724 E14.49954
G1 X76.245 Y132.015 E14.5323
G1 X75.695 Y131.254 E14.56509
G1 X75.233 Y130.478 E14.59663
G1 X74.81 Y129.601 E14.63063
G1 X74.481 Y128.723 E14.66338
G1 X74.23 Y127.818 E14.69618
G1 X74.059 Y126.89 E14.72913
G1 X73.963 Y125.725 E14.76996
G1 X73.95 Y125.108 E14.79151
G1 X73.951 Y95.065 E15.8407
G1 X73.962 Y94.382 E15.86456
G1 X74.019 Y93.445 E15.89734
G1 X74.159 Y92.518 E15.93008
G1 X74.38 Y91.605 E15.96289
G1 X74.682 Y90.716 E15.99568
G1 X75.06 Y89.858 E16.02842
G1 X75.513 Y89.036 E16.0612
G1 X76.037 Y88.256 E16.09401
G1 X76.628 Y87.528 E16.12676
G1 X77.281 Y86.854 E16.15954
G0 F6000 X77.543 Y87.156
G1 F900 X78.225 Y86.564 E16.19107
G1 X78.957 Y86.035 E16.22262
G1 X79.733 Y85.573 E16.25415
G1 X80.547 Y85.182 E16.28569
G1 X81.392 Y84.863 E16.31723
G1 X82.262 Y84.621 E16.34877
G1 X83.15 Y84.457 E16.38031
G1 X84.273 Y84.363 E16.41966
G1 X84.88 Y84.35 E16.44087
G1 X134.743 Y84.35 E18.18224
G1 X135.587 Y84.361 E18.21172
G1 X136.489 Y84.414 E18.24327
G1 X137.382 Y84.546 E18.2748
G1 X138.26 Y84.757 E18.30633
G1 X139.116 Y85.045 E18.33787
G1 X139.943 Y85.407 E18.3694
G1 X140.735 Y85.842 E18.40096
G1 X141.486 Y86.344 E18.4325
G1 X142.189 Y86.911 E18.46405
G1 X142.839 Y87.538 E18.49559
G1 X143.431 Y88.22 E18.52712
G1 X143.961 Y88.951 E18.55866
G1 X144.423 Y89.727 E18.5902
G1 X144.816 Y90.54 E18.62173
G1 X145.134 Y91.385 E18.65326
G1 X145.377 Y92.255 E18.68481
G1 X145.542 Y93.143 E18.71635
G1 X145.637 Y94.273 E18.75595
G1 X145.65 Y94.88 E18.77716
G1 X145.649 Y124.854 E19.82394
G1 X145.639 Y125.581 E19.84933
G1 X145.587 Y126.483 E19.88089
G1 X145.455 Y127.376 E19.91241
G1 X145.244 Y128.255 E19.94398
G1 X144.957 Y129.111 E19.97551
G1 X144.595 Y129.938 E20.00704
G1 X144.161 Y130.73 E20.03858
G1 X143.659 Y131.481 E20.07013
G1 X143.093 Y132.184 E20.10165
G1 X142.466 Y132.835 E20.13321
G1 X141.785 Y133.427 E20.16472
G1 X141.054 Y133.957 E20.19626
G1 X140.278 Y134.42 E20.22781
G1 X139.465 Y134.813 E20.25935
G1 X138.62 Y135.133 E20.2909
G1 X137.751 Y135.376 E20.32242
G1 X136.863 Y135.541 E20.35396
G1 X135.727 Y135.637 E20.39377
G1 X135.12 Y135.65 E20.41498
G1 X85.111 Y135.649 E22.16145
G1 X84.413 Y135.639 E22.18583
G1 X83.511 Y135.586 E22.21738
G1 X82.618 Y135.454 E22.24891
G1 X81.74 Y135.243 E22.28044
G1 X80.884 Y134.955 E22.31198
G1 X80.057 Y134.593 E22.34351
G1 X79.265 Y134.158 E22.37507
G1 X78.514 Y133.656 E22.40661
G1 X77.811 Y133.089 E22.43816
G1 X77.161 Y132.462 E22.4697
G1 X76.569 Y131.78 E22.50123
G1 X76.039 Y131.049 E22.53277
G1 X75.577 Y130.273 E22.56431
G1 X75.184 Y129.46 E22.59584
G1 X74.866 Y128.615 E22.62737
G1 X74.623 Y127.745 E22.65892
G1 X74.458 Y126.857 E22.69046
G1 X74.363 Y125.716 E22.73045
G1 X74.35 Y125.108 E22.75169
G1 X74.351 Y95.071 E23.80067
G1 X74.361 Y94.406 E23.8239
G1 X74.415 Y93.504 E23.85546
G1 X74.548 Y92.611 E23.88699
G1 X74.759 Y91.733 E23.91852
G1 X75.048 Y90.877 E23.95007
G1 X75.411 Y90.05 E23.98161
G1 X75.845 Y89.259 E24.01312
G1 X76.348 Y88.508 E24.04469
G1 X76.916 Y87.806 E24.07623
G1 X77.543 Y87.156 E24.10777
G1 F2400 E23.30777
G1 F300 Z0.4
;MESH:CaseEsp32Tampa.stl
G0 F6000 X110 Y124.448
;TYPE:WALL-INNER
G1 F300 Z0.2
G1 F2400 E24.10777
G1 F900 X134.448 Y124.448 E24.96157
G1 X134.448 Y95.548 E25.97085
G1 X85.548 Y95.548 E27.67859
G1 X85.548 Y124.448 E28.68787
G1 X110 Y124.448 E29.54181
G0 F6000 X110 Y124.848
G1 F900 X134.848 Y124.848 E30.40958
G1 X134.848 Y95.148 E31.44679
G1 X85.148 Y95.148 E33.18247
G1 X85.148 Y124.848 E34.21969
G1 X110 Y124.848 E35.0876
G0 F6000 X110 Y125.248
;TYPE:WALL-OUTER
G1 F900 X135.248 Y125.248 E35.96934
G1 X135.248 Y94.748 E37.0345
G1 X84.748 Y94.748 E38.79812
G1 X84.748 Y125.248 E39.86327
G1 X110 Y125.248 E40.74515
G0 F6000 X110 Y124.088
;TYPE:SKIN
G1 F900 X85.908 Y124.088 E41.58652
G1 X85.908 Y95.908 E42.57065
G1 X134.088 Y95.908 E44.25325
G1 X134.088 Y124.088 E45.23738
G1 X110 Y124.088 E46.07861
G1 F2400 E45.27861
G1 F300 Z0.4
G0 F6000 X86.108 Y123.443
G1 F300 Z0.2
G1 F2400 E46.07861
G1 F900 X86.553 Y123.888 E46.10059
G0 F6000 X87.118 Y123.888
G1 F900 X86.108 Y122.877 E46.1505
G0 F6000 X86.108 Y122.312
G1 F900 X87.684 Y123.888 E46.22833
G0 F6000 X88.25 Y123.888
G1 F900 X86.108 Y121.746 E46.33413
G0 F6000 X86.108 Y121.18
G1 F900 X88.815 Y123.888 E46.46785
G0 F6000 X89.381 Y123.888
G1 F900 X86.108 Y120.615 E46.6295
G0 F6000 X86.108 Y120.049
G1 F900 X89.947 Y123.888 E46.8191
G0 F6000 X90.512 Y123.888
G1 F900 X86.108 Y119.483 E47.03663
G0 F6000 X86.108 Y118.918
G1 F900 X91.078 Y123.888 E47.28209
G0 F6000 X91.644 Y123.888
G1 F900 X86.108 Y118.352 E47.55551
G0 F6000 X86.108 Y117.786
G1 F900 X92.21 Y123.888 E47.85688
G0 F6000 X92.775 Y123.888
G1 F900 X86.108 Y117.221 E48.18616
G0 F6000 X86.108 Y116.655
G1 F900 X93.341 Y123.888 E48.54338
G0 F6000 X93.907 Y123.888
G1 F900 X86.108 Y116.089 E48.92857
G0 F6000 X86.108 Y115.524
G1 F900 X94.472 Y123.888 E49.34166
G0 F6000 X95.038 Y123.888
G1 F900 X86.108 Y114.958 E49.7827
G0 F6000 X86.108 Y114.392
G1 F900 X95.604 Y123.888 E50.25169
G0 F6000 X96.169 Y123.888
G1 F900 X86.108 Y113.827 E50.74859
G0 F6000 X86.108 Y113.261
G1 F900 X96.735 Y123.888 E51.27345
G0 F6000 X97.301 Y123.888
G1 F900 X86.108 Y112.695 E51.82626
G0 F6000 X86.108 Y112.129
G1 F900 X97.866 Y123.888 E52.40699
G0 F6000 X98.432 Y123.888
G1 F900 X86.108 Y111.564 E53.01566
G0 F6000 X86.108 Y110.998
G1 F900 X98.998 Y123.888 E53.65228
G0 F6000 X99.563 Y123.888
G1 F900 X86.108 Y110.432 E54.31683
G0 F6000 X86.108 Y109.867
G1 F900 X100.129 Y123.888 E55.00931
G0 F6000 X100.695 Y123.888
G1 F900 X86.108 Y109.301 E55.72975
G0 F6000 X86.108 Y108.735
G1 F900 X101.261 Y123.888 E56.47814
G0 F6000 X101.826 Y123.888
G1 F900 X86.108 Y108.17 E57.25443
G0 F6000 X86.108 Y107.604
G1 F900 X102.392 Y123.888 E58.05868
G0 F6000 X102.958 Y123.888
G1 F900 X86.108 Y107.038 E58.89088
G0 F6000 X86.108 Y106.473
G1 F900 X103.523 Y123.888 E59.75098
G0 F6000 X104.089 Y123.888
G1 F900 X86.108 Y105.907 E60.63904
G0 F6000 X86.108 Y105.341
G1 F900 X104.655 Y123.888 E61.55506
G0 F6000 X105.22 Y123.888
G1 F900 X86.108 Y104.776 E62.49897
G0 F6000 X86.108 Y104.21
G1 F900 X105.786 Y123.888 E63.47085
G0 F6000 X106.352 Y123.888
G1 F900 X86.108 Y103.644 E64.47067
G0 F6000 X86.108 Y103.078
G1 F900 X106.917 Y123.888 E65.49843
G0 F6000 X107.483 Y123.888
G1 F900 X86.108 Y102.513 E66.55411
G0 F6000 X86.108 Y101.947
G1 F900 X108.049 Y123.888 E67.63775
G0 F6000 X108.614 Y123.888
G1 F900 X86.108 Y101.381 E68.74932
G0 F6000 X86.108 Y100.816
G1 F900 X109.18 Y123.888 E69.88882
G0 F6000 X109.746 Y123.888
G1 F900 X86.108 Y100.25 E71.05627
G0 F6000 X86.108 Y99.684
G1 F900 X110.311 Y123.888 E72.25165
G0 F6000 X110.877 Y123.888
G1 F900 X86.108 Y99.119 E73.47496
G0 F6000 X86.108 Y98.553
G1 F900 X111.443 Y123.888 E74.72623
G0 F6000 X112.009 Y123.888
G1 F900 X86.108 Y97.987 E76.00545
G0 F6000 X86.108 Y97.422
G1 F900 X112.574 Y123.888 E77.31257
G0 F6000 X113.14 Y123.888
G1 F900 X86.108 Y96.856 E78.64765
G0 F6000 X86.108 Y96.29
G1 F900 X113.706 Y123.888 E80.01068
G0 F6000 X114.271 Y123.888
G1 F900 X86.492 Y96.109 E81.38265
G0 F6000 X87.058 Y96.109
G1 F900 X114.837 Y123.888 E82.75462
G0 F6000 X115.403 Y123.888
G1 F900 X87.623 Y96.109 E84.12662
G0 F6000 X88.189 Y96.109
G1 F900 X115.968 Y123.888 E85.49859
G0 F6000 X116.534 Y123.888
G1 F900 X88.755 Y96.109 E86.87056
G0 F6000 X89.32 Y96.109
G1 F900 X117.1 Y123.888 E88.24256
G0 F6000 X117.665 Y123.888
G1 F900 X89.886 Y96.109 E89.61453
G0 F6000 X90.452 Y96.109
G1 F900 X118.231 Y123.888 E90.9865
G0 F6000 X118.797 Y123.888
G1 F900 X91.017 Y96.109 E92.35849
G0 F6000 X91.583 Y96.109
G1 F900 X119.362 Y123.888 E93.73046
G0 F6000 X119.928 Y123.888
G1 F900 X92.149 Y96.109 E95.10244
G0 F6000 X92.714 Y96.109
G1 F900 X120.494 Y123.888 E96.47443
G0 F6000 X121.06 Y123.888
G1 F900 X93.28 Y96.109 E97.84643
G0 F6000 X93.846 Y96.109
G1 F900 X121.625 Y123.888 E99.2184
G0 F6000 X122.191 Y123.888
G1 F900 X94.411 Y96.109 E100.59039
G0 F6000 X94.977 Y96.109
G1 F900 X122.757 Y123.888 E101.96239
G0 F6000 X123.322 Y123.888
G1 F900 X95.543 Y96.109 E103.33436
G0 F6000 X96.109 Y96.109
G1 F900 X123.888 Y123.888 E104.70633
G0 F6000 X124.454 Y123.888
G1 F900 X96.674 Y96.109 E106.07833
G0 F6000 X97.24 Y96.109
G1 F900 X125.019 Y123.888 E107.4503
G0 F6000 X125.585 Y123.888
G1 F900 X97.806 Y96.109 E108.82227
G0 F6000 X98.371 Y96.109
G1 F900 X126.151 Y123.888 E110.19426
G0 F6000 X126.716 Y123.888
G1 F900 X98.937 Y96.109 E111.56623
G0 F6000 X99.503 Y96.109
G1 F900 X127.282 Y123.888 E112.93821
G0 F6000 X127.848 Y123.888
G1 F900 X100.068 Y96.109 E114.3102
G0 F6000 X100.634 Y96.109
G1 F900 X128.413 Y123.888 E115.68217
G0 F6000 X128.979 Y123.888
G1 F900 X101.2 Y96.109 E117.05414
G0 F6000 X101.765 Y96.109
G1 F900 X129.545 Y123.888 E118.42614
G0 F6000 X130.11 Y123.888
G1 F900 X102.331 Y96.109 E119.79811
G0 F6000 X102.897 Y96.109
G1 F900 X130.676 Y123.888 E121.17008
G0 F6000 X131.242 Y123.888
G1 F900 X103.462 Y96.109 E122.54208
G0 F6000 X104.028 Y96.109
G1 F900 X131.808 Y123.888 E123.91407
G0 F6000 X132.373 Y123.888
G1 F900 X104.594 Y96.109 E125.28604
G0 F6000 X105.16 Y96.109
G1 F900 X132.939 Y123.888 E126.65801
G0 F6000 X133.505 Y123.888
G1 F900 X105.725 Y96.109 E128.03001
G0 F6000 X106.291 Y96.109
G1 F900 X133.888 Y123.706 E129.39299
G0 F6000 X133.888 Y123.14
G1 F900 X106.857 Y96.109 E130.72802
G0 F6000 X107.422 Y96.109
G1 F900 X133.888 Y122.574 E132.03512
G0 F6000 X133.888 Y122.008
G1 F900 X107.988 Y96.109 E133.31426
G0 F6000 X108.554 Y96.109
G1 F900 X133.888 Y121.443 E134.56548
G0 F6000 X133.888 Y120.877
G1 F900 X109.119 Y96.109 E135.78876
G0 F6000 X109.685 Y96.109
G1 F900 X133.888 Y120.311 E136.9841
G0 F6000 X133.888 Y119.746
G1 F900 X110.251 Y96.109 E138.1515
G0 F6000 X110.816 Y96.109
G1 F900 X133.888 Y119.18 E139.29097
G0 F6000 X133.888 Y118.614
G1 F900 X111.382 Y96.109 E140.40249
G0 F6000 X111.948 Y96.109
G1 F900 X133.888 Y118.049 E141.48608
G0 F6000 X133.888 Y117.483
G1 F900 X112.513 Y96.109 E142.54174
G0 F6000 X113.079 Y96.109
G1 F900 X133.888 Y116.917 E143.56945
G0 F6000 X133.888 Y116.352
G1 F900 X113.645 Y96.109 E144.56923
G0 F6000 X114.21 Y96.109
G1 F900 X133.888 Y115.786 E145.54107
G0 F6000 X133.888 Y115.22
G1 F900 X114.776 Y96.109 E146.48497
G0 F6000 X115.342 Y96.109
G1 F900 X133.888 Y114.655 E147.40093
G0 F6000 X133.888 Y114.089
G1 F900 X115.908 Y96.109 E148.28894
G0 F6000 X116.473 Y96.109
G1 F900 X133.888 Y113.523 E149.14902
G0 F6000 X133.888 Y112.957
G1 F900 X117.039 Y96.109 E149.98115
G0 F6000 X117.605 Y96.109
G1 F900 X133.888 Y112.392 E150.78535
G0 F6000 X133.888 Y111.826
G1 F900 X118.17 Y96.109 E151.56161
G0 F6000 X118.736 Y96.109
G1 F900 X133.888 Y111.26 E152.30993
G0 F6000 X133.888 Y110.695
G1 F900 X119.302 Y96.109 E153.03031
G0 F6000 X119.867 Y96.109
G1 F900 X133.888 Y110.129 E153.72277
G0 F6000 X133.888 Y109.563
G1 F900 X120.433 Y96.109 E154.38727
G0 F6000 X120.999 Y96.109
G1 F900 X133.888 Y108.998 E155.02384
G0 F6000 X133.888 Y108.432
G1 F900 X121.564 Y96.109 E155.63249
G0 F6000 X122.13 Y96.109
G1 F900 X133.888 Y107.866 E156.21317
G0 F6000 X133.888 Y107.301
G1 F900 X122.696 Y96.109 E156.76593
G0 F6000 X123.261 Y96.109
