;FLAVOR:Marlin
;TIME:2733
;Filament used: 2.5231m
;Layer height: 0.16
;MINX:0
;MINY:0
;MINZ:0.2
;MAXX:140.7
;MAXY:127.7
;MAXZ:46
;TARGET_MACHINE.NAME:Creality Ender-3 V3 SE
;Generated with Cura_SteamEngine 5.12.0
M220 S100 ;Reset Feedrate
M221 S100 ;Reset Flowrate

G28 ;Home

M420 S1; Use saved mesh leveling data

G92 E0 ;Reset Extruder
G1 Z2.0 F3000 ;Move Z Axis up
G1 X-3 Y20 Z0.28 F5000.0 ;Move to start position
M190 S60 ; Set bed temperature and wait
M109 S200 ; Set hotend temperature and wait
G1 X-3 Y100.0 Z0.28 F1500.0 E15 ;Draw the first line
G1 X-2 Y100.0 Z0.28 F5000.0 ;Move to side a little
G1 X-2 Y20 Z0.28 F1500.0 E30 ;Draw the second line
G92 E0 ;Reset Extruder
G1 E-1.0000 F1800 ;Retract a bit
G1 Z2.0 F3000 ;Move Z Axis up
G1 E0.0000 F1800 

M82 ;absolute extrusion mode
G92 E0
G92 E0
G1 F2400 E-0.8
;LAYER_COUNT:230
;LAYER:0
M107
G1 F300 Z0.4
G0 F6000 X82.769 Y95.301
;TYPE:SKIRT
G1 F300 Z0.2
G1 F2400 E0
G1 F900 X83.479 Y94.687 E0.03278
G1 X84.298 Y94.097 E0.06803
G1 X85.137 Y93.601 E0.10207
G1 X85.951 Y93.21 E0.13361
G1 X86.928 Y92.842 E0.17007
G1 X87.832 Y92.592 E0.20282
G1 X88.834 Y92.409 E0.23839
G1 X90.005 Y92.313 E0.27943
G1 X90.612 Y92.3 E0.30063
G1 X129.004 Y92.3 E1.6414
G1 X129.884 Y92.313 E1.67213
G1 X130.856 Y92.372 E1.70614
G1 X131.819 Y92.518 E1.74016
G1 X132.766 Y92.749 E1.7742
G1 X133.654 Y93.049 E1.80693
G1 X134.546 Y93.439 E1.84093
G1 X135.429 Y93.926 E1.87615
G1 X136.18 Y94.428 E1.9077
G1 X136.995 Y95.086 E1.94428
G1 X137.693 Y95.764 E1.97826
G1 X138.329 Y96.501 E2.01226
G1 X138.899 Y97.291 E2.04628
G1 X139.361 Y98.067 E2.07782
G1 X139.815 Y99.009 E2.11434
G1 X140.144 Y99.887 E2.14708
G1 X140.413 Y100.859 E2.1823
G1 X140.59 Y101.825 E2.2166
G1 X140.685 Y102.955 E2.2562
G1 X140.7 Y103.63 E2.27978
G1 X140.699 Y116.116 E2.71583
G1 X140.687 Y116.877 E2.74241
G1 X140.629 Y117.85 E2.77645
G1 X140.483 Y118.813 E2.81047
G1 X140.252 Y119.76 E2.84451
G1 X139.939 Y120.682 E2.87851
G1 X139.547 Y121.573 E2.91251
G1 X139.095 Y122.395 E2.94527
G1 X138.533 Y123.233 E2.98051
G1 X137.943 Y123.963 E3.01328
G1 X137.24 Y124.689 E3.04858
G1 X136.504 Y125.325 E3.08255
G1 X135.714 Y125.895 E3.11657
G1 X134.938 Y126.358 E3.14813
G1 X133.998 Y126.811 E3.18457
G1 X133.085 Y127.153 E3.21862
G1 X132.147 Y127.412 E3.2526
G1 X131.181 Y127.589 E3.2869
G1 X130.045 Y127.685 E3.32671
G1 X129.37 Y127.7 E3.35029
G1 X90.849 Y127.699 E4.69556
G1 X90.116 Y127.687 E4.72117
G1 X89.144 Y127.628 E4.75517
G1 X88.181 Y127.482 E4.78919
G1 X87.234 Y127.251 E4.82323
G1 X86.346 Y126.951 E4.85597
G1 X85.454 Y126.561 E4.88996
G1 X84.571 Y126.074 E4.92518
G1 X83.82 Y125.572 E4.95673
G1 X83.005 Y124.914 E4.99331
G1 X82.307 Y124.236 E5.02729
G1 X81.671 Y123.499 E5.06129
G1 X81.101 Y122.709 E5.09531
G1 X80.639 Y121.933 E5.12685
G1 X80.185 Y120.991 E5.16337
G1 X79.856 Y120.113 E5.19611
G1 X79.587 Y119.14 E5.23137
G1 X79.41 Y118.173 E5.2657
G1 X79.314 Y117.008 E5.30652
G1 X79.3 Y116.358 E5.32923
G1 X79.301 Y103.809 E5.76748
G1 X79.313 Y103.108 E5.79196
G1 X79.373 Y102.135 E5.82601
G1 X79.52 Y101.174 E5.85996
G1 X79.751 Y100.226 E5.89404
G1 X80.053 Y99.337 E5.92682
G1 X80.46 Y98.415 E5.96202
G1 X80.931 Y97.563 E5.99602
G1 X81.476 Y96.754 E6.03009
G1 X82.067 Y96.026 E6.06283
G1 X82.769 Y95.301 E6.09808
G0 F6000 X83.031 Y95.604
G1 F900 X83.741 Y94.99 E6.13086
G1 X84.502 Y94.441 E6.16363
G1 X85.31 Y93.962 E6.19643
G1 X86.124 Y93.571 E6.22797
G1 X87.035 Y93.228 E6.26196
G1 X87.939 Y92.978 E6.29472
G1 X88.867 Y92.808 E6.32767
G1 X90.014 Y92.713 E6.36786
G1 X90.621 Y92.7 E6.38906
G1 X128.998 Y92.7 E7.72931
G1 X129.86 Y92.712 E7.75942
G1 X130.797 Y92.768 E7.7922
G1 X131.725 Y92.907 E7.82497
G1 X132.638 Y93.128 E7.85777
G1 X133.494 Y93.416 E7.88931
G1 X134.386 Y93.806 E7.92331
G1 X135.207 Y94.259 E7.95606
G1 X135.958 Y94.761 E7.98761
G1 X136.717 Y95.373 E8.02166
G1 X137.391 Y96.026 E8.05443
G1 X138.005 Y96.735 E8.08719
G1 X138.555 Y97.496 E8.11998
G1 X139.017 Y98.272 E8.15152
G1 X139.44 Y99.149 E8.18552
G1 X139.769 Y100.027 E8.21826
G1 X140.02 Y100.932 E8.25106
G1 X140.191 Y101.859 E8.28398
G1 X140.286 Y102.989 E8.32359
G1 X140.3 Y103.63 E8.34598
G1 X140.299 Y116.11 E8.78182
G1 X140.288 Y116.854 E8.8078
G1 X140.233 Y117.791 E8.84058
G1 X140.094 Y118.719 E8.87335
G1 X139.873 Y119.632 E8.90616
G1 X139.573 Y120.521 E8.93893
G1 X139.196 Y121.38 E8.97169
G1 X138.744 Y122.202 E9.00445
G1 X138.221 Y122.982 E9.03724
G1 X137.655 Y123.685 E9.06876
G1 X136.978 Y124.387 E9.10282
G1 X136.27 Y125.001 E9.13555
G1 X135.509 Y125.551 E9.16834
G1 X134.733 Y126.014 E9.1999
G1 X133.857 Y126.437 E9.23387
G1 X132.978 Y126.768 E9.26667
G1 X132.074 Y127.019 E9.29944
G1 X131.147 Y127.19 E9.33236
G1 X130.011 Y127.286 E9.37217
G1 X129.37 Y127.3 E9.39456
G1 X90.855 Y127.299 E10.73963
G1 X90.14 Y127.288 E10.7646
G1 X89.203 Y127.232 E10.79738
G1 X88.275 Y127.093 E10.83015
G1 X87.362 Y126.872 E10.86296
G1 X86.506 Y126.584 E10.8945
G1 X85.614 Y126.194 E10.9285
G1 X84.793 Y125.741 E10.96124
G1 X84.042 Y125.239 E10.99279
G1 X83.283 Y124.627 E11.02684
G1 X82.609 Y123.974 E11.05962
G1 X81.995 Y123.265 E11.09237
G1 X81.445 Y122.504 E11.12516
G1 X80.983 Y121.728 E11.1567
G1 X80.56 Y120.851 E11.19071
G1 X80.231 Y119.973 E11.22345
G1 X79.98 Y119.068 E11.25625
G1 X79.809 Y118.14 E11.2892
G1 X79.713 Y116.975 E11.33003
G1 X79.7 Y116.358 E11.35158
G1 X79.701 Y103.815 E11.78962
G1 X79.712 Y103.132 E11.81347
G1 X79.769 Y102.195 E11.84626
G1 X79.909 Y101.268 E11.879
G1 X80.13 Y100.355 E11.9118
G1 X80.432 Y99.466 E11.94459
G1 X80.81 Y98.608 E11.97734
G1 X81.263 Y97.786 E12.01011
G1 X81.787 Y97.006 E12.04293
G1 X82.378 Y96.278 E12.07568
G1 X83.031 Y95.604 E12.10845
G0 F6000 X83.293 Y95.906
G1 F900 X83.975 Y95.314 E12.13999
G1 X84.707 Y94.785 E12.17153
G1 X85.483 Y94.323 E12.20307
G1 X86.297 Y93.932 E12.23461
G1 X87.142 Y93.613 E12.26615
G1 X88.012 Y93.371 E12.29769
G1 X88.9 Y93.207 E12.32922
G1 X90.023 Y93.113 E12.36858
G1 X90.63 Y93.1 E12.38978
G1 X128.993 Y93.1 E13.72954
G1 X129.837 Y93.111 E13.75902
G1 X130.739 Y93.164 E13.79057
G1 X131.632 Y93.296 E13.8221
G1 X132.51 Y93.507 E13.85363
G1 X133.366 Y93.795 E13.88517
G1 X134.193 Y94.157 E13.9167
G1 X134.985 Y94.592 E13.94826
G1 X135.736 Y95.094 E13.9798
G1 X136.439 Y95.661 E14.01134
G1 X137.089 Y96.288 E14.04288
G1 X137.681 Y96.97 E14.07442
G1 X138.211 Y97.701 E14.10596
G1 X138.673 Y98.477 E14.1375
G1 X139.066 Y99.29 E14.16903
G1 X139.384 Y100.135 E14.20056
G1 X139.627 Y101.005 E14.23211
G1 X139.792 Y101.893 E14.26365
G1 X139.887 Y103.023 E14.30325
G1 X139.9 Y103.63 E14.32446
G1 X139.899 Y116.104 E14.76009
G1 X139.889 Y116.831 E14.78548
G1 X139.837 Y117.733 E14.81703
G1 X139.705 Y118.626 E14.84856
G1 X139.494 Y119.505 E14.88013
G1 X139.207 Y120.361 E14.91166
G1 X138.845 Y121.188 E14.94318
G1 X138.411 Y121.98 E14.97472
G1 X137.909 Y122.731 E15.00627
G1 X137.343 Y123.434 E15.03779
G1 X136.716 Y124.085 E15.06936
G1 X136.035 Y124.677 E15.10087
G1 X135.304 Y125.207 E15.1324
G1 X134.528 Y125.67 E15.16396
G1 X133.715 Y126.063 E15.19549
G1 X132.87 Y126.383 E15.22705
G1 X132.001 Y126.626 E15.25856
G1 X131.113 Y126.791 E15.2901
G1 X129.977 Y126.887 E15.32992
G1 X129.37 Y126.9 E15.35112
G1 X90.861 Y126.899 E16.69598
G1 X90.163 Y126.889 E16.72036
G1 X89.261 Y126.836 E16.75191
G1 X88.368 Y126.704 E16.78344
G1 X87.49 Y126.493 E16.81497
G1 X86.634 Y126.205 E16.84651
G1 X85.807 Y125.843 E16.87804
G1 X85.015 Y125.408 E16.9096
G1 X84.264 Y124.906 E16.94114
G1 X83.561 Y124.339 E16.97268
G1 X82.911 Y123.712 E17.00422
G1 X82.319 Y123.03 E17.03576
G1 X81.789 Y122.299 E17.0673
G1 X81.327 Y121.523 E17.09884
G1 X80.934 Y120.71 E17.13037
G1 X80.616 Y119.865 E17.1619
G1 X80.373 Y118.995 E17.19345
G1 X80.208 Y118.107 E17.22499
G1 X80.113 Y116.966 E17.26498
G1 X80.1 Y116.358 E17.28621
G1 X80.101 Y103.821 E17.72404
G1 X80.111 Y103.156 E17.74727
G1 X80.165 Y102.254 E17.77883
G1 X80.298 Y101.361 E17.81036
G1 X80.509 Y100.483 E17.84189
G1 X80.798 Y99.627 E17.87345
G1 X81.161 Y98.8 E17.90499
G1 X81.595 Y98.009 E17.9365
G1 X82.098 Y97.258 E17.96806
G1 X82.666 Y96.556 E17.9996
G1 X83.293 Y95.906 E18.03114
G1 F2400 E17.23114
G1 F300 Z0.4
;MESH:CaseBat.stl
G0 F6000 X110 Y115.7
;TYPE:WALL-INNER
G1 F300 Z0.2
G1 F2400 E18.03114
G1 F900 X128.7 Y115.7 E18.6842
G1 X128.7 Y104.3 E19.08233
G1 X91.3 Y104.3 E20.38845
G1 X91.3 Y115.7 E20.78657
G1 X110 Y115.7 E21.43964
G0 F6000 X110 Y116.1
G1 F900 X129.1 Y116.1 E22.10667
G1 X129.1 Y103.9 E22.53273
G1 X90.9 Y103.9 E23.8668
G1 X90.9 Y116.1 E24.29286
G1 X110 Y116.1 E24.95989
G0 F6000 X110 Y116.5
;TYPE:WALL-OUTER
G1 F900 X129.5 Y116.5 E25.64089
G1 X129.5 Y103.5 E26.09489
G1 X90.5 Y103.5 E27.45689
G1 X90.5 Y116.5 E27.9109
G1 X110 Y116.5 E28.5919
G0 F6000 X110 Y115.34
;TYPE:SKIN
G1 F900 X91.66 Y115.34 E29.23239
G1 X91.66 Y104.66 E29.60537
G1 X128.34 Y104.66 E30.88635
G1 X128.34 Y115.34 E31.25933
G1 X110 Y115.34 E31.89982
G1 F2400 E31.09982
G1 F300 Z0.4
G0 F6000 X91.86 Y115.053
G1 F300 Z0.2
G1 F2400 E31.89982
G1 F900 X91.947 Y115.14 E31.90411
G0 F6000 X92.512 Y115.14
G1 F900 X91.86 Y114.488 E31.93632
G0 F6000 X91.86 Y113.922
G1 F900 X93.078 Y115.14 E31.99647
G0 F6000 X93.644 Y115.14
G1 F900 X91.86 Y113.356 E32.08458
G0 F6000 X91.86 Y112.791
G1 F900 X94.209 Y115.14 E32.20059
G0 F6000 X94.775 Y115.14
G1 F900 X91.86 Y112.225 E32.34456
G0 F6000 X91.86 Y111.659
G1 F900 X95.341 Y115.14 E32.51649
G0 F6000 X95.906 Y115.14
G1 F900 X91.86 Y111.094 E32.71631
G0 F6000 X91.86 Y110.528
G1 F900 X96.472 Y115.14 E32.94409
G0 F6000 X97.038 Y115.14
G1 F900 X91.86 Y109.962 E33.19983
G0 F6000 X91.86 Y109.396
G1 F900 X97.603 Y115.14 E33.48349
G0 F6000 X98.169 Y115.14
G1 F900 X91.86 Y108.831 E33.79509
G0 F6000 X91.86 Y108.265
G1 F900 X98.735 Y115.14 E34.13463
G0 F6000 X99.3 Y115.14
G1 F900 X91.86 Y107.699 E34.50211
G0 F6000 X91.86 Y107.134
G1 F900 X99.866 Y115.14 E34.89752
G0 F6000 X100.432 Y115.14
G1 F900 X91.86 Y106.568 E35.32088
G0 F6000 X91.86 Y106.002
G1 F900 X100.997 Y115.14 E35.77217
G0 F6000 X101.563 Y115.14
G1 F900 X91.86 Y105.437 E36.25139
G0 F6000 X91.86 Y104.871
G1 F900 X102.129 Y115.14 E36.75856
G0 F6000 X102.695 Y115.14
G1 F900 X92.415 Y104.86 E37.26628
G0 F6000 X92.981 Y104.86
G1 F900 X103.26 Y115.14 E37.77397
G0 F6000 X103.826 Y115.14
G1 F900 X93.547 Y104.86 E38.28166
G0 F6000 X94.112 Y104.86
G1 F900 X104.392 Y115.14 E38.78938
G0 F6000 X104.957 Y115.14
G1 F900 X94.678 Y104.86 E39.29707
G0 F6000 X95.244 Y104.86
G1 F900 X105.523 Y115.14 E39.80476
G0 F6000 X106.089 Y115.14
G1 F900 X95.809 Y104.86 E40.31248
G0 F6000 X96.375 Y104.86
G1 F900 X106.654 Y115.14 E40.82017
G0 F6000 X107.22 Y115.14
G1 F900 X96.941 Y104.86 E41.32786
G0 F6000 X97.506 Y104.86
G1 F900 X107.786 Y115.14 E41.83558
G0 F6000 X108.351 Y115.14
G1 F900 X98.072 Y104.86 E42.34327
G0 F6000 X98.638 Y104.86
G1 F900 X108.917 Y115.14 E42.85096
G0 F6000 X109.483 Y115.14
G1 F900 X99.204 Y104.86 E43.35866
G0 F6000 X99.769 Y104.86
G1 F900 X110.048 Y115.14 E43.86635
G0 F6000 X110.614 Y115.14
G1 F900 X100.335 Y104.86 E44.37404
G0 F6000 X100.901 Y104.86
G1 F900 X111.18 Y115.14 E44.88173
G0 F6000 X111.745 Y115.14
G1 F900 X101.466 Y104.86 E45.38942
G0 F6000 X102.032 Y104.86
G1 F900 X112.311 Y115.14 E45.89712
G0 F6000 X112.877 Y115.14
G1 F900 X102.598 Y104.86 E46.40481
G0 F6000 X103.163 Y104.86
G1 F900 X113.443 Y115.14 E46.91252
G0 F6000 X114.008 Y115.14
G1 F900 X103.729 Y104.86 E47.42022
G0 F6000 X104.295 Y104.86
G1 F900 X114.574 Y115.14 E47.92791
G0 F6000 X115.14 Y115.14
G1 F900 X104.86 Y104.86 E48.43563
G0 F6000 X105.426 Y104.86
G1 F900 X115.705 Y115.14 E48.94332
G0 F6000 X116.271 Y115.14
G1 F900 X105.992 Y104.86 E49.45101
G0 F6000 X106.557 Y104.86
G1 F900 X116.837 Y115.14 E49.95873
G0 F6000 X117.402 Y115.14
G1 F900 X107.123 Y104.86 E50.46642
G0 F6000 X107.689 Y104.86
G1 F900 X117.968 Y115.14 E50.97411
G0 F6000 X118.534 Y115.14
G1 F900 X108.255 Y104.86 E51.4818
G0 F6000 X108.82 Y104.86
G1 F900 X119.099 Y115.14 E51.98949
G0 F6000 X119.665 Y115.14
G1 F900 X109.386 Y104.86 E52.49719
G0 F6000 X109.952 Y104.86
G1 F900 X120.231 Y115.14 E53.00488
G0 F6000 X120.796 Y115.14
G1 F900 X110.517 Y104.86 E53.51257
G0 F6000 X111.083 Y104.86
G1 F900 X121.362 Y115.14 E54.02026
G0 F6000 X121.928 Y115.14
G1 F900 X111.649 Y104.86 E54.52795
G0 F6000 X112.214 Y104.86
G1 F900 X122.494 Y115.14 E55.03567
G0 F6000 X123.059 Y115.14
G1 F900 X112.78 Y104.86 E55.54336
G0 F6000 X113.346 Y104.86
G1 F900 X123.625 Y115.14 E56.05105
G0 F6000 X124.191 Y115.14
G1 F900 X113.911 Y104.86 E56.55877
G0 F6000 X114.477 Y104.86
G1 F900 X124.756 Y115.14 E57.06646
G0 F6000 X125.322 Y115.14
G1 F900 X115.043 Y104.86 E57.57415
G0 F6000 X115.608 Y104.86
G1 F900 X125.888 Y115.14 E58.08187
G0 F6000 X126.453 Y115.14
G1 F900 X116.174 Y104.86 E58.58956
G0 F6000 X116.74 Y104.86
G1 F900 X127.019 Y115.14 E59.09726
G0 F6000 X127.585 Y115.14
G1 F900 X117.305 Y104.86 E59.60497
G0 F6000 X117.871 Y104.86
G1 F900 X128.14 Y115.129 E60.11215
G0 F6000 X128.14 Y114.563
G1 F900 X118.437 Y104.86 E60.59136
G0 F6000 X119.003 Y104.86
G1 F900 X128.14 Y113.998 E61.04265
G0 F6000 X128.14 Y113.432
G1 F900 X119.568 Y104.86 E61.46602
G0 F6000 X120.134 Y104.86
G1 F900 X128.14 Y112.866 E61.86142
G0 F6000 X128.14 Y112.301
G1 F900 X120.7 Y104.86 E62.2289
G0 F6000 X121.265 Y104.86
G1 F900 X128.14 Y111.735 E62.56845
G0 F6000 X128.14 Y111.169
G1 F900 X121.831 Y104.86 E62.88004
G0 F6000 X122.397 Y104.86
G1 F900 X128.14 Y110.604 E63.16371
G0 F6000 X128.14 Y110.038
G1 F900 X122.962 Y104.86 E63.41944
G0 F6000 X123.528 Y104.86
G1 F900 X128.14 Y109.472 E63.64722
G0 F6000 X128.14 Y108.906
G1 F900 X124.094 Y104.86 E63.84705
G0 F6000 X124.659 Y104.86
G1 F900 X128.14 Y108.341 E64.01897
G0 F6000 X128.14 Y107.775
G1 F900 X125.225 Y104.86 E64.16294
G0 F6000 X125.791 Y104.86
G1 F900 X128.14 Y107.209 E64.27895
G0 F6000 X128.14 Y106.644
G1 F900 X126.356 Y104.86 E64.36706
G0 F6000 X126.922 Y104.86
G1 F900 X128.14 Y106.078 E64.42722
G0 F6000 X128.14 Y105.512
G1 F900 X127.488 Y104.86 E64.45942
G0 F6000 X128.054 Y104.86
G1 F900 X128.14 Y104.947 E64.46369
M104 S200
G1 F2400 E63.66369
G1 F300 Z0.4
;MESH:NONMESH
G0 F6000 X83.293 Y95.906
;TIME_ELAPSED:137.124968
;LAYER:1
M106 S85
;TYPE:SKIRT
G1 F300
G1 F2400 E64.46369
G1 F900 X83.975 Y95.314 E64.49373
G1 X84.707 Y94.785 E64.52377
G1 X85.483 Y94.323 E64.55381
G1 X86.297 Y93.932 E64.58384
G1 X87.142 Y93.613 E64.61388
G1 X88.012 Y93.371 E64.64392
G1 X88.9 Y93.207 E64.67395
G1 X90.023 Y93.113 E64.71143
G1 X90.63 Y93.1 E64.73163
G1 X128.993 Y93.1 E66.00759
G1 X129.837 Y93.111 E66.03566
G1 X130.739 Y93.164 E66.06571
G1 X131.632 Y93.296 E66.09574
G1 X132.51 Y93.507 E66.12577
G1 X133.366 Y93.795 E66.15581
G1 X134.193 Y94.157 E66.18583
G1 X134.985 Y94.592 E66.21589
G1 X135.736 Y95.094 E66.24593
G1 X136.439 Y95.661 E66.27597
G1 X137.089 Y96.288 E66.30601
G1 X137.681 Y96.97 E66.33605
G1 X138.211 Y97.701 E66.36608
G1 X138.673 Y98.477 E66.39612
G1 X139.066 Y99.29 E66.42615
G1 X139.384 Y100.135 E66.45618
G1 X139.627 Y101.005 E66.48622
G1 X139.792 Y101.893 E66.51626
G1 X139.887 Y103.023 E66.55398
G1 X139.9 Y103.63 E66.57417
G1 X139.899 Y116.104 E66.98906
G1 X139.889 Y116.831 E67.01324
G1 X139.837 Y117.733 E67.04329
G1 X139.705 Y118.626 E67.07332
G1 X139.494 Y119.505 E67.10338
G1 X139.207 Y120.361 E67.13341
G1 X138.845 Y121.188 E67.16344
G1 X138.411 Y121.98 E67.19348
G1 X137.909 Y122.731 E67.22352
G1 X137.343 Y123.434 E67.25354
G1 X136.716 Y124.085 E67.2836
G1 X136.035 Y124.677 E67.31361
G1 X135.304 Y125.207 E67.34364
G1 X134.528 Y125.67 E67.3737
G1 X133.715 Y126.063 E67.40373
G1 X132.87 Y126.383 E67.43379
G1 X132.001 Y126.626 E67.4638
G1 X131.113 Y126.791 E67.49384
G1 X129.977 Y126.887 E67.53176
G1 X129.37 Y126.9 E67.55195
G1 X90.861 Y126.899 E68.83276
G1 X90.163 Y126.889 E68.85598
G1 X89.261 Y126.836 E68.88603
G1 X88.368 Y126.704 E68.91606
G1 X87.49 Y126.493 E68.94609
G1 X86.634 Y126.205 E68.97613
G1 X85.807 Y125.843 E69.00616
G1 X85.015 Y125.408 E69.03621
G1 X84.264 Y124.906 E69.06626
G1 X83.561 Y124.339 E69.0963
G1 X82.911 Y123.712 E69.12633
G1 X82.319 Y123.03 E69.15637
G1 X81.789 Y122.299 E69.1864
G1 X81.327 Y121.523 E69.21644
G1 X80.934 Y120.71 E69.24647
G1 X80.616 Y119.865 E69.2765
G1 X80.373 Y118.995 E69.30655
G1 X80.208 Y118.107 E69.33659
